icons/svg/office/accountant.svg

<?xml version="1.0" encoding="UTF-8" standalone="no"?>
<!-- Created with Inkscape (http://www.inkscape.org/) -->

<svg
   xmlns:dc="http://purl.org/dc/elements/1.1/"
   xmlns:cc="http://creativecommons.org/ns#"
   xmlns:rdf="http://www.w3.org/1999/02/22-rdf-syntax-ns#"
   xmlns:svg="http://www.w3.org/2000/svg"
   xmlns="http://www.w3.org/2000/svg"
   xmlns:sodipodi="http://sodipodi.sourceforge.net/DTD/sodipodi-0.dtd"
   xmlns:inkscape="http://www.inkscape.org/namespaces/inkscape"
   version="1.0"
   width="580"
   height="580"
   id="svg2"
   sodipodi:version="0.32"
   inkscape:version="0.91 r"
   sodipodi:docname="accountant.svg"
   inkscape:output_extension="org.inkscape.output.svg.inkscape">
  <metadata
     id="metadata10">
    <rdf:RDF>
      <cc:Work
         rdf:about="">
        <dc:format>image/svg+xml</dc:format>
        <dc:type
           rdf:resource="http://purl.org/dc/dcmitype/StillImage" />
        <cc:license
           rdf:resource="http://web.resource.org/cc/PublicDomain" />
        <dc:language>en</dc:language>
        <dc:title />
      </cc:Work>
    </rdf:RDF>
  </metadata>
  <sodipodi:namedview
     inkscape:window-height="1004"
     inkscape:window-width="1920"
     inkscape:pageshadow="2"
     inkscape:pageopacity="0.0"
     guidetolerance="10.0"
     gridtolerance="10.0"
     objecttolerance="10.0"
     borderopacity="1.0"
     bordercolor="#666666"
     pagecolor="#ffffff"
     id="base"
     showgrid="false"
     inkscape:zoom="0.70710678"
     inkscape:cx="474.35171"
     inkscape:cy="390.89348"
     inkscape:window-x="1680"
     inkscape:window-y="0"
     inkscape:current-layer="svg2"
     inkscape:window-maximized="1"
     showguides="false"
     inkscape:snap-global="false" />
  <defs
     id="defs4">
    <inkscape:perspective
       sodipodi:type="inkscape:persp3d"
       inkscape:vp_x="0 : 290 : 1"
       inkscape:vp_y="0 : 1000 : 0"
       inkscape:vp_z="580 : 290 : 1"
       inkscape:persp3d-origin="290 : 193.33333 : 1"
       id="perspective12" />
  </defs>
  <g
     id="g1327">
    <path
       d="M 66.275,1.768 C 24.94,1.768 1.704,23.139 1.704,66.804 L 1.704,516.927 C 1.704,557.771 22.598,579.156 63.896,579.156 L 515.92,579.156 C 557.227,579.156 578.149,558.84 578.149,516.927 L 578.149,66.804 C 578.149,24.203 557.227,1.768 514.627,1.768 C 514.624,1.768 66.133,1.625 66.275,1.768 z"
       style="fill:#111111;stroke:#eeeeee;stroke-width:3.40799999"
       id="path1329" />
  </g>
  <path
     inkscape:connector-curvature="0"
     style="color:#000000;clip-rule:nonzero;display:inline;overflow:visible;visibility:visible;opacity:1;isolation:auto;mix-blend-mode:normal;color-interpolation:sRGB;color-interpolation-filters:linearRGB;solid-color:#000000;solid-opacity:1;fill:#ffffff;fill-opacity:1;fill-rule:nonzero;stroke:none;stroke-width:25;stroke-linecap:round;stroke-linejoin:round;stroke-miterlimit:4;stroke-dasharray:none;stroke-dashoffset:0;stroke-opacity:1;marker:none;color-rendering:auto;image-rendering:auto;shape-rendering:auto;text-rendering:auto;enable-background:accumulate"
     d="m 151.9707,306.31641 c -15.16319,0 -28.17493,9.21233 -33.74414,22.34765 l -2.89258,35.31446 0,38.75586 c 0,4.71422 0.89771,9.21518 2.51954,13.35546 l -79.132817,0 0,26.78907 0,10.71679 0,92.875 24.779038,0 0,-92.875 254.074739,0 0,92.875 24.77513,0 0,-92.875 0.002,0 0,-37.50586 -79.13281,0 c 1.62182,-4.14028 2.51953,-8.64126 2.51953,-13.35546 l 0,-38.75391 -2.89258,-35.31836 c -5.5692,-13.13175 -18.58094,-22.3457 -33.74414,-22.3457 l -77.13086,0 z m -7.71289,49.17382 8.67774,0 0,60.59961 -8.67774,0 z m 83.87891,0 8.67773,0 0,60.59961 -8.67773,0 z"
     id="path4178"
     sodipodi:nodetypes="sccsccccccccccccccsccscscccccccccc" />
  <path
     inkscape:connector-curvature="0"
     style="color:#000000;clip-rule:nonzero;display:inline;overflow:visible;visibility:visible;opacity:1;isolation:auto;mix-blend-mode:normal;color-interpolation:sRGB;color-interpolation-filters:linearRGB;solid-color:#000000;solid-opacity:1;fill:#ffffff;fill-opacity:1;fill-rule:nonzero;stroke:none;stroke-width:25;stroke-linecap:round;stroke-linejoin:round;stroke-miterlimit:4;stroke-dasharray:none;stroke-dashoffset:0;stroke-opacity:1;marker:none;color-rendering:auto;image-rendering:auto;shape-rendering:auto;text-rendering:auto;enable-background:accumulate"
     d="m 190.53711,201.07227 c -24.76076,0 -44.83397,20.07127 -44.83399,44.83203 0,24.76075 20.07323,44.83203 44.83399,44.83203 24.76076,0 44.83203,-20.07128 44.83203,-44.83203 0,-24.76076 -20.07127,-44.83203 -44.83203,-44.83203 z"
     id="path4176" />
  <rect
     style="color:#000000;clip-rule:nonzero;display:inline;overflow:visible;visibility:visible;opacity:0;isolation:auto;mix-blend-mode:normal;color-interpolation:sRGB;color-interpolation-filters:linearRGB;solid-color:#000000;solid-opacity:1;fill:#ffffff;fill-opacity:1;fill-rule:nonzero;stroke:none;stroke-width:29;stroke-linecap:round;stroke-linejoin:round;stroke-miterlimit:10;stroke-dasharray:none;stroke-dashoffset:0;stroke-opacity:1;marker:none;color-rendering:auto;image-rendering:auto;shape-rendering:auto;text-rendering:auto;enable-background:accumulate"
     id="rect4162"
     width="112.5"
     height="178"
     x="608.5"
     y="263.5" />
  <ellipse
     style="color:#000000;clip-rule:nonzero;display:inline;overflow:visible;visibility:visible;opacity:0;isolation:auto;mix-blend-mode:normal;color-interpolation:sRGB;color-interpolation-filters:linearRGB;solid-color:#000000;solid-opacity:1;fill:#ffffff;fill-opacity:1;fill-rule:nonzero;stroke:none;stroke-width:29;stroke-linecap:round;stroke-linejoin:round;stroke-miterlimit:10;stroke-dasharray:none;stroke-dashoffset:0;stroke-opacity:1;marker:none;color-rendering:auto;image-rendering:auto;shape-rendering:auto;text-rendering:auto;enable-background:accumulate"
     id="path4164"
     cx="462.75"
     cy="372.25"
     rx="234.25"
     ry="103.75" />
  <path
     inkscape:connector-curvature="0"
     id="path4165"
     style="font-style:normal;font-variant:normal;font-weight:bold;font-stretch:normal;font-size:medium;line-height:125%;font-family:sans-serif;-inkscape-font-specification:'sans-serif Bold';letter-spacing:0px;word-spacing:0px;fill:#ffffff;fill-opacity:1;stroke:none;stroke-width:1px;stroke-linecap:butt;stroke-linejoin:miter;stroke-opacity:1"
     d="m 399.13346,115.36431 q -7.63431,0 -11.82782,6.66659 -4.1935,6.55907 -4.1935,18.81698 0,12.36545 4.08597,19.03204 4.19351,6.55906 11.93535,6.55906 7.74185,0 11.82783,-6.55906 4.08597,-6.66659 4.08597,-19.03204 0,-12.25791 -4.1935,-18.81698 -4.08598,-6.66659 -11.7203,-6.66659 z m 0,-18.064302 q 19.99976,0 31.50501,11.612762 11.50525,11.61278 11.50525,31.93511 0,20.32235 -11.50525,32.15017 -11.50525,11.72029 -31.50501,11.72029 -19.99977,0 -31.61253,-11.72029 -11.50525,-11.82782 -11.50525,-32.15017 0,-20.21482 11.50525,-31.82758 11.61276,-11.720292 31.61253,-11.720292 z m -98.601,87.418332 -23.76316,0 100.32141,-166.557193 23.87068,0 L 300.53246,184.71834 Z M 278.48971,18.161147 q 19.99976,0 31.39748,11.720293 11.50525,11.612767 11.50525,31.93511 0,20.322343 -11.50525,32.042632 -11.39772,11.720308 -31.39748,11.720308 -19.99977,0 -31.505,-11.720308 -11.39772,-11.720289 -11.39772,-32.042632 0,-20.322343 11.39772,-31.93511 11.50523,-11.720293 31.505,-11.720293 z m 0,18.064305 q -7.74184,0 -11.93535,6.666589 -4.19349,6.666588 -4.19349,18.924509 0,12.365447 4.19349,19.139561 4.19351,6.666591 11.93535,6.666591 7.74185,0 11.82783,-6.666591 4.19349,-6.774114 4.19349,-19.139561 0,-12.257921 -4.19349,-18.924509 -4.19351,-6.666589 -11.82783,-6.666589 z" />
  <path
     inkscape:connector-curvature="0"
     id="path4167"
     style="font-style:normal;font-variant:normal;font-weight:bold;font-stretch:normal;font-size:medium;line-height:125%;font-family:sans-serif;-inkscape-font-specification:'sans-serif Bold';letter-spacing:0px;word-spacing:0px;fill:#ffffff;fill-opacity:1;stroke:none;stroke-width:1px;stroke-linecap:butt;stroke-linejoin:miter;stroke-opacity:1"
     d="m 460.88471,82.277217 97.39622,0 0,27.437623 -97.39622,0 0,-27.437623 z" />
  <path
     inkscape:connector-curvature="0"
     id="path4169"
     style="font-style:normal;font-variant:normal;font-weight:bold;font-stretch:normal;font-size:medium;line-height:125%;font-family:sans-serif;-inkscape-font-specification:'sans-serif Bold';letter-spacing:0px;word-spacing:0px;fill:#ffffff;fill-opacity:1;stroke:none;stroke-width:1px;stroke-linecap:butt;stroke-linejoin:miter;stroke-opacity:1"
     d="m 366.40717,213.19919 0,58.92938 58.70446,0 0,26.54071 -58.70446,0 0,58.92938 -26.76564,0 0,-58.92938 -58.70445,0 0,-26.54071 58.70445,0 0,-58.92938 26.76564,0 z" />
  <path
     inkscape:connector-curvature="0"
     id="path4171"
     style="font-style:normal;font-variant:normal;font-weight:bold;font-stretch:normal;font-size:medium;line-height:125%;font-family:sans-serif;-inkscape-font-specification:'sans-serif Bold';letter-spacing:0px;word-spacing:0px;fill:#ffffff;fill-opacity:1;stroke:none;stroke-width:1px;stroke-linecap:butt;stroke-linejoin:miter;stroke-opacity:1"
     d="m 515.70958,204.09974 20.93179,0 -49.68943,158.6856 -20.83751,0 49.59515,-158.6856 z" />
</svg>

<svg width="580" height="580" viewBox="0 0 580 580" fill="none" xmlns="http://www.w3.org/2000/svg">
<g clip-path="url(#clip0)">
<path d="M66.275 1.76802C24.94 1.76802 1.704 23.139 1.704 66.804V516.927C1.704 557.771 22.598 579.156 63.896 579.156H515.92C557.227 579.156 578.149 558.84 578.149 516.927V66.804C578.149 24.203 557.227 1.76802 514.627 1.76802C514.624 1.76802 66.133 1.62502 66.275 1.76802Z" fill="#111111" stroke="#EEEEEE" stroke-width="3.408"/>
<path d="M151.971 306.316C136.808 306.316 123.796 315.529 118.227 328.664L115.334 363.979V402.734C115.334 407.449 116.232 411.95 117.854 416.09H38.7207V442.879V453.596V546.471H63.4997V453.596H317.574V546.471H342.35V453.596H342.352V416.09H263.219C264.841 411.95 265.738 407.449 265.738 402.734V363.98L262.846 328.662C257.277 315.53 244.265 306.316 229.102 306.316H151.971H151.971ZM144.258 355.49H152.936V416.09H144.258V355.49ZM228.137 355.49H236.814V416.09H228.137V355.49Z" fill="white"/>
<path d="M190.537 201.072C165.776 201.072 145.703 221.144 145.703 245.904C145.703 270.665 165.776 290.736 190.537 290.736C215.298 290.736 235.369 270.665 235.369 245.904C235.369 221.144 215.298 201.072 190.537 201.072Z" fill="white"/>
<path d="M399.133 115.364C394.044 115.364 390.101 117.586 387.306 122.031C384.51 126.404 383.112 132.676 383.112 140.848C383.112 149.092 384.474 155.436 387.198 159.88C389.994 164.253 393.972 166.439 399.133 166.439C404.295 166.439 408.237 164.253 410.961 159.88C413.685 155.436 415.047 149.092 415.047 140.848C415.047 132.676 413.649 126.404 410.854 122.031C408.13 117.586 404.223 115.364 399.133 115.364V115.364ZM399.133 97.3C412.467 97.3 422.968 101.171 430.638 108.913C438.309 116.655 442.144 127.3 442.144 140.848C442.144 154.396 438.309 165.113 430.638 172.998C422.968 180.812 412.467 184.718 399.133 184.718C385.8 184.718 375.263 180.812 367.521 172.998C359.851 165.113 356.016 154.396 356.016 140.848C356.016 127.371 359.851 116.762 367.521 109.02C375.263 101.207 385.8 97.3 399.133 97.3ZM300.532 184.718H276.769L377.091 18.1611H400.961L300.532 184.718ZM278.49 18.1611C291.823 18.1611 302.289 22.0679 309.887 29.8814C317.557 37.6233 321.392 48.2683 321.392 61.8165C321.392 75.3648 317.557 86.0456 309.887 93.8592C302.289 101.673 291.823 105.579 278.49 105.579C265.157 105.579 254.655 101.673 246.985 93.8592C239.386 86.0456 235.587 75.3648 235.587 61.8165C235.587 48.2683 239.386 37.6233 246.985 29.8814C254.655 22.0679 265.157 18.1611 278.49 18.1611V18.1611ZM278.49 36.2254C273.328 36.2254 269.35 38.4476 266.554 42.892C263.759 47.3364 262.361 53.6446 262.361 61.8165C262.361 70.0602 263.759 76.44 266.554 80.9561C269.35 85.4005 273.328 87.6227 278.49 87.6227C283.651 87.6227 287.594 85.4005 290.318 80.9561C293.113 76.44 294.511 70.0602 294.511 61.8165C294.511 53.6446 293.113 47.3364 290.318 42.892C287.522 38.4476 283.579 36.2254 278.49 36.2254V36.2254Z" fill="white"/>
<path d="M460.885 82.2772H558.281V109.715H460.885V82.2772V82.2772Z" fill="white"/>
<path d="M366.407 213.199V272.129H425.112V298.669H366.407V357.599H339.642V298.669H280.937V272.129H339.642V213.199H366.407V213.199Z" fill="white"/>
<path d="M515.71 204.1H536.641L486.952 362.785H466.114L515.71 204.1V204.1Z" fill="white"/>
</g>
<defs>
<clipPath id="clip0">
<path d="M0 0H580V580H0V0Z" fill="white"/>
</clipPath>
</defs>
</svg>
